X: 401
T:The Eagle's Whistle
T:Bonaparte's Retreat
T:Fead an Iolair
T:O'Donovan's March
M:3/4
R:waltz
L:1/8
Z:James T. Peeples
K:G
d2 | B2 B2 d2 | B2 A2 BG | A2 A2 BG | A2 A2 d2 |
B2 B2 d2 | B2 A2 AF | G2 G2 AF | G4  || d2 |
e2 e2 ge | e2 d2 dB | A2 A2 BG | A2 A2 d2 |
ed ef ge | e2 d2 BA | G2 G2 AF | G4 ||


